X:575
T:Téged kér szívünk
M:3/4
L:1/8
Q:1/8=120
K:D
%%player_right
%%MIDI program 25
DF | "D"A>A A2 "G"BB | "D"!shortphrase!A4 DF |
w: Té-ged kér szí-vünk, Jé-zus, jöjj! Té-ged
"Dmaj"A>A A2 GF | "A"!shortphrase!E4 DF | "D"A>A A2 "G"BB |
w: kér szí-vünk, Jé-zus, jöjj! Té-ged kér szí-vünk, Jé-zus,
"f#min"!shortphrase!A4 "G"G2 | [M:2/4] ("D"F/E/)D "A"EE | [M:3/4] "D"D4 |]
w: jöjj! Ó, Jé-*zus, hoz-zánk jöjj!


